X:1
T:Consolation No. 3
T:Franz Liszt
T:Consolations
T:III
T:Public Domain
T:Public Domain
T:Public Domain
T:Public Domain
T:Public Domain
T:Public Domain
C:Franz Liszt
Z:Public Domain
%%score { ( 1 4 ) | ( 2 3 ) }
L:1/8
Q:1/4=65
M:4/4
K:Db
V:1 treble nm="Piano"
V:4 treble 
V:2 bass 
V:3 bass 
V:1
"^Lento placido"!ppp! z8 | z8 | z4 z2"^cantando" f2 | (f4 Bcdf) | (f4- fefe) | (d6- d/f/d/b/ | %6
 a2) z2 z2 f2 | (f4 Bcdf) | (f4- f=ea=g) | (f6- f/a/f/d'/ | c'2) z2 z2 a2 | (a4 =defa) | %12
 (!>!a4- a.B.c.=d |!<(! .e.f.g.a) !tenuto!.=a!<)! !^!c'2 !tenuto!.b | (!>!b4- (3b_ad'(3c'=ef | %15
 (3bac (3dgf (3.=G.A.B (3.c.d.f) | (f4- fefe | d2) z2 z4 | z4 z2 [ff']2 | %19
 (!arpeggio![ff']4 [Bb][cc'][dd'][ff']) | (!arpeggio![ff']4- [ff'][ee'][ff'][ee']) | %21
 ([d-d']4 d/f/d/b/a/f'/d'/b'/ | a'2) z2 z2 [ff']2 | ([ff']4 [Bb][cc'][dd'][ff']) | %24
 ([ff']4-!<(! [ff'][=e=e'][aa'][=g=g'])!<)! | ([ff']4- [ff']/a/f/d'/c'/!8va(!a'/f'/d''/ | %26
 c''2)!8va)! z2 z2 c2 |!mf!"^expressivo" (c4 =GABd | c2) z2 z2 c'2 | (c'4 [=e=g][fa][gb][bd']) | %30
"^dolcissimo" ([=ac']4- [ac'][_b=d'][fa][bd'] | [=ac'][b=d'][fa][bd'] [ac'][bd'][fa][bd']) | %32
 ([=ac']4- [ac']!<(![=b=d'][c'=e'][d'f']!<)! | %33
!<(! !tenuto![=e'=g']2)!<)! !tenuto![=d'f']2 !tenuto![c'e']2 !tenuto![=bd']2 | %34
 [=ac']2 z2 z2!mf!"^expressivo" =e2 | (=e4 =Bc=df | =e2) z2 z2 =e'2 | %37
 (=e'4 [^g=b][=ac'][b=d'][d'f']) | ([^c'=e']4- [c'e'][=d'^f'][=a^c'][d'f'] | %39
 [^c'=e'][=d'^f'][=ac'][d'f'] [c'e'][d'f'][ac'][d'f']) | %40
 !tenuto![_d'=f']2!<(! !tenuto![_g_e'_g']2 !tenuto![_af'_a']2 !tenuto![bg'b']2!<)! | %41
 (!>![bg'b']4-"^poco rit." [bg'b'][af'a'][ge'g'][ebe'] | [fd'f']4) z4 | z4 z2 F2 | (F4 B,CDF) | %45
 (F4- FEFE | D2) z2 z4 | z4 z2 [ff']2 | (!arpeggio![ff']4 [Bb][cc'][dd'][ff'] | %49
 [ff']4- [ff'][ee'][ff'][ee']) | ([dd']4- [dd']/f/d/b/a/f'/d'/b'/ | a'2) z2 z2 (3z x !tenuto!D | %52
 (D4- D/B/G/e/d/b/g/e'/ | d'2) z2 z2 z d | !>!d6- d/_f/d/g/ | %55
"_smor   -    -    -    -    -    -    -    -    -   zan    -    -    -    -    -     -     -     -    -   do" =e/=a/e/=b/ a/^c'/a/^d'/!8va(! ^c'/=e'/c'/^f'/ e'/=a'/e'/=b'/ a'/^c''/a'/^d''/ a'/c''/a'/d''/ a'/c''/a'/d''/ a'/c''/a'/d''/ | %56
!ppp! ([=f'_a']4- [f'a'][g'b'][d'f'][g'b'] | [f'a'][g'b'][d'f'][g'b'] [f'a'][g'b'][d'f'][g'b'] | %58
 [f'a'][d'f']!8va)![bd']"_rit."[gb] [fa][df][Bd]"_per   -    -    -  den   -     -     -     -  dosi."[GB] | %59
 [FA]2 [DF]2 [B,D]2 [G,B,]2- | [G,B,]4 [F,A,]2) z2 |] %61
V:2
!ped! (3z"^sempre legatissimo" (F,D(3A,FD(3A,F,D(3A,FD) | (3z (F,D(3A,FD(3A,F,D(3A,FD) | %2
 (3z (F,D(3A,FD(3A,F,D(3A,FD)!ped-up! |!ped! (3z (=G,D(3B,FD(3B,G,D(3B,FD)!ped-up! | %4
!ped! (3z (_G,C(3A,FC(3A,G,C(3A,EC)!ped-up! |!ped! (3z (F,D(3A,FD(3A,F,D(3A,FD) | %6
 (3z (F,D(3A,FD(3A,F,D(3A,FD)!ped-up! |!ped! (3z (=G,D(3B,FD(3B,G,D(3B,FD) | %8
 (3z (=G,D(3B,FD)!ped-up!!ped! (3z (G,D(3B,=EC)!ped-up! |!ped! (3z (A,F(3CAF(3CA,F(3CAF) | %10
 (3z (A,F(3CAF(3CA,F(3CAF)!ped-up! |!ped! (3z (A,=D(3_CAD(3CA,D(3CAD)!ped-up! | %12
!ped! (3z (G,E(3B,GE(3B,G,E(3B,GE) | z8!ped-up! |!ped! (3z (F,D(3A,FD(3A,F,D(3A,FD) | z8!ped-up! | %16
!ped! (3z (=G,D(3B,FD)!ped-up!!ped! (3z (_G,C(3A,EC)!ped-up! |!ped! (3z (F,D(3A,FD(3A,F,D(3A,FD) | %18
 (3z (F,D(3A,FD(3A,F,D(3A,FD)!ped-up! |!ped! (3z (=G,D(3B,FD(3B,G,D(3B,FD)!ped-up! | %20
!ped! (3z (_G,C(3A,FC(3A,G,C(3A,EC)!ped-up! |!ped! (3z (F,D(3A,FD(3A,F,D(3A,FD) | %22
 (3z (F,D(3A,FD(3A,F,D(3A,FD)!ped-up! |!ped! (3z (=G,D(3B,FD(3B,G,D(3B,FD) | %24
 (3z (=G,D(3B,FD)!ped-up!!ped! (3z (G,D(3B,=EC)!ped-up! |!ped! (3z (A,F(3CAF(3CA,F(3CAF) | %26
 (3z (A,F(3CAF(3CA,F(3CAF)!ped-up! |!ped! (3z (B,=E(3C=GE(3CB,E(3CGE)!ped-up! | %28
!ped! (3z (A,F(3CAF(3CA,F(3CAF)!ped-up! |!ped! (3z (B,=E(3C=GE(3CB,E(3CGE)!ped-up! | %30
!ped! (3z (=A,F(3C=AF(3CA,F(3CAF) | (3z (=A,F(3C=AF) (3z (A,F(3CAF)!ped-up! | %32
!ped! (3z (=A,=E(3C=AE(3CA,E(3CAE)!ped-up! |!ped!!<(! (3z (^G,=E(3=B,^GE) z4!ped-up!!<)! | %34
!ped! (3z[K:treble] (C=A(3=EcA(3ECA(3EcA)!ped-up! |!ped! (3z (=D^G(3=E=BG(3EDG(3EBG)!ped-up! | %36
!ped! (3z (C=A(3=EcA(3ECA(3EcA)!ped-up! | %37
[K:bass]!ped! (3z[K:treble] (=D^G(3=E=BG(3EDG(3EBG)!ped-up! | %38
[K:bass]"^dolcissimo"!ped! (3z[K:treble] (^C=A(3=E^cA(3ECA(3EcA) | %39
[K:bass] (3z[K:treble] (^C=A(3=E^cA)[K:bass] (3z[K:treble] (CA(3EcA)!ped-up! | %40
[K:bass]!ped! (3z[K:treble] (_D_A(3FdA(3F[K:bass]D_A,(3F,DA,)!ped-up! | %41
!ped! (3z (G,E(3CAE(3CG,E(3CAE)!ped-up! |!ped! (3z (F,D(3A,AD(3A,F,D(3A,AD) | %43
 (3z (F,D(3A,AD(3A,F,D(3A,AD)!ped-up! |!ped! (3z (D,B,(3=G,FB,) z4!ped-up! | %45
!ped! (3z (D,C(3A,_GC) z4!ped-up! |!ped! (3z (D,A,[K:treble](3FDB(3Afd(3baf | %47
(3dBA(3F[K:bass]DA,(3F,DA,(3FDA,)!ped-up! |!ped! (3z (=G,D(3B,FD(3B,G,D(3B,FD)!ped-up! | %49
!ped! (3z (_G,C(3A,FC(3A,G,C(3A,EC)!ped-up! |!ped! (3z (F,D(3_CAD(3CF,D(3CAD) | %51
 (3z (F,D(3_CAD(3CF,D(3CA[I:staff -1]D)!ped-up! | %52
!ped![I:staff +1] (3z (D,B,(3G,GB,(3G,D,B,(3G,GB,) | (3z (D,B,(3G,GB,(3G,D,B,(3G,GB,)!ped-up! | %54
!ped! (3z (D,__B,(3_F,_FB,(3F,D,B,(3F,FB,) | %55
 x[I:staff -1] ^c[I:staff +1] x[I:staff -1] =e[I:staff +1] x[I:staff -1] =A[I:staff +1] x[I:staff -1] c[I:staff +1] x[I:staff -1] e[I:staff +1] x[I:staff -1] e[I:staff +1] x[I:staff -1] e[I:staff +1] x[I:staff -1] e!ped-up! | %56
!ped![I:staff +1] (3z (F,D(3A,FD(3A,F,D(3A,FD) | (3z (F,D(3A,FD) (3z (F,D(3A,FD) | z8 | z8 | %60
 z8!ped-up! |] %61
V:3
 D,,8 | D,,8 | D,,8- | D,,8- | D,,8 | D,,8- | D,,8 | D,,8- | D,,4 C,,4 | F,,8- | F,,8 | F,,8 | %12
 G,,8 | x8 | A,,8 | x8 | A,,4 A,,4 | D,,8- | D,,8 | D,,8- | D,,8 | D,,8 | D,,8 | D,,8- | %24
 D,,4 C,,4 | F,,8- | F,,8- | F,,8- | F,,8 | F,,8 | F,,8 | F,,4 F,,4 | =E,,8 | =E,,4 x4 | %34
 =A,,8[K:treble] | x8 | x8 |[K:bass] =A,,8[K:treble] |[K:bass] =A,,8[K:treble] | %39
[K:bass] =A,,4[K:treble][K:bass] A,,4[K:treble] |[K:bass] _A,,8[K:treble][K:bass] | A,,8 | D,,8 | %43
 D,,8 | x8 | x8 | x2[K:treble] x6 | x8/3[K:bass] x16/3 | D,,8 | D,,8 | D,,8 | x8 | D,,8 | x8 | %54
 D,,8 | x16 | D,,8 | x8 | x8 | x8 | x8 |] %61
V:4
 x8 | x8 | x8 | x8 | x8 | x8 | x8 | x8 | x8 | x8 | x8 | x8 | x8 | x8 | x8 | x8 | x8 | x8 | x8 | %19
 x8 | x8 | x8 | x8 | x8 | x8 | x13/2!8va(! x3/2 | x2!8va)! x6 | x8 | x8 | !arpeggio![B=e] x7 | x8 | %31
 x8 | x8 | x8 | x8 | x8 | x8 | [=d^g] x7 | x8 | x8 | x8 | x8 | x8 | x8 | x8 | x8 | x8 | x8 | x8 | %49
 x8 | x8 | x8 | x8 | x8 | !arpeggio![_F__B]6 x B/ x/ | x4!8va(! x12 | [_f''=a'']2 x6 | x8 | %58
 x2!8va)! x6 | x8 | x8 |] %61

